X:1
T: Sweet is the Lass that Dwells among the Heather
C:
R:Strathspey
Q: 128
K:A
M:4/4
L:1/16
|:E2|CE3 E3F ECEF A3c|ecBA BABc A2F2 F2A2|CE3 E3F ECEF A3c|ecBA BABc A4 A2E2|
CE3 E3F ECEF A3c|ecBA BABc A2F2 F2A2|CE3 E3F ECEF A3c|ecBA BABc A4 A2c2|
d3e f2ed c3d fedc|B3c dcBA B2F2 F3c|d3e f2ed c3d fedc|ecBA BABc A4 A2Bc|
d3e f2ed c3d fedc|dcBA BABc A2F2 F2d2|c2e2 d2f2 e2fg a3c|ecBA BABc A4 A2:|
